X:0708
T:Miss Dundass of Kerse's Strathspey.
M:C
L:1/16
Q:1/4=120
I: :: :|
N:initial double bar added
Z:Jack Campin * www.campin.me.uk * 2009
K:D
f3g|:af3ed3 d2e2`f2A2  |cB3AF3 EF3``E3G   | FA3````BA3    FA3````BA3  |(BABc) (dcde) (fefg) (fefg)|
     af3ed3 d3e``f3A   |Bd3Ad3 F4   E4    |(GFGA) (BABc) (dcde) (fefa)|(gfed) (fedc)  d4     d4  :|
     Ad3d3e d4 (3f2e2d2|Be3e3f e4 (3g2f2e2| fa3````ba3    fa3````ba3  | d'2c'2`b2a2   g2f2```e2d2 |
     Ae3e3f e4  ~f3g   |a3fed3 d3e  f2A2  | Bd3````Ad3    B2d2```g2b2 |(bagf) (agfe)  d4     d4  :|
<end>
<start>
